src/assets/mobile/astanahub.svg

<svg width="91" height="24" viewBox="0 0 91 24" fill="none" xmlns="http://www.w3.org/2000/svg">
<path d="M10.8292 0.0452708C9.30761 0.230282 8.02008 0.619184 6.6948 1.29127C3.84033 2.74493 1.63152 5.36152 0.691361 8.40477C0.547883 8.86919 0.551659 9.11084 0.702689 9.41667C0.876373 9.75649 1.00852 9.83955 1.79388 10.1303C6.30212 11.7765 14.1443 12.1012 19.8231 10.8779C21.3409 10.5532 22.9041 10.0661 23.293 9.8018C23.5006 9.66209 23.6705 9.39402 23.7272 9.13349C23.78 8.87674 23.7461 8.69928 23.5233 8.06873C22.4548 5.0066 20.2346 2.52216 17.3311 1.14024C16.2323 0.619184 15.1713 0.298246 13.8876 0.0943555C13.2533 -0.0038139 11.4711 -0.0340199 10.8292 0.0452708Z" fill="#090C21"/>
<path d="M71.5243 14.8651H72.7703V13.1735C72.7703 11.3347 72.7854 11.1875 72.9855 10.8175C73.1101 10.5872 73.2876 10.4286 73.5632 10.3002C73.7482 10.2134 73.82 10.202 74.1862 10.202C74.5638 10.202 74.6204 10.2096 74.8168 10.3077C75.0999 10.4474 75.2812 10.6627 75.3756 10.9685C75.4473 11.195 75.4511 11.3234 75.4511 13.0376V14.8651H76.6971V12.9394C76.6971 10.7797 76.6858 10.6551 76.4441 10.1454C76.2704 9.78292 75.9117 9.41667 75.5644 9.24676C74.9225 8.93337 74.005 8.94092 73.4009 9.26564C73.2951 9.32605 73.1063 9.46953 72.9893 9.59035L72.7703 9.81312V6.89825H71.5243V14.8651Z" fill="#090C21"/>
<path d="M84.3619 14.8651H85.6079V14.0759L85.8005 14.2798C86.1856 14.6876 86.6349 14.9028 87.2579 14.9783C88.6021 15.1407 89.8745 14.2949 90.286 12.9621C90.4069 12.5656 90.4522 12.0861 90.4031 11.6406C90.32 10.8817 90.0708 10.3682 89.5196 9.82068C89.2288 9.53372 89.1156 9.44688 88.8173 9.29962C87.7714 8.78235 86.4235 8.98624 85.7589 9.76027L85.6079 9.93773V6.89825H84.3619V14.8651ZM87.8922 10.2662C88.5379 10.4323 89.0627 11.0365 89.1571 11.7274C89.2892 12.6827 88.7606 13.5171 87.862 13.755C87.6015 13.823 87.1862 13.823 86.9105 13.7512C86.0912 13.536 85.555 12.7507 85.6192 11.8634C85.7023 10.708 86.7519 9.97171 87.8922 10.2662Z" fill="#090C21"/>
<path d="M45.1697 7.744C44.8903 7.83085 44.6298 7.91391 44.5958 7.92524C44.5354 7.95167 44.5278 8.01586 44.5278 8.55957V9.16368H43.5084V10.3719H44.5203L44.5354 11.9842C44.5505 13.5133 44.5542 13.6115 44.6335 13.8456C44.8034 14.3553 45.0753 14.6347 45.5661 14.7971C45.8002 14.8726 45.906 14.8839 46.4534 14.8839C46.797 14.8839 47.1066 14.8726 47.1444 14.8575C47.201 14.8311 47.2086 14.7669 47.2086 14.2798V13.7323H46.7291C46.3364 13.7323 46.2156 13.7172 46.0872 13.6606C45.7927 13.5247 45.7927 13.536 45.7814 11.8558L45.77 10.3719L46.4799 10.3644L47.1897 10.353L47.2124 9.16368H45.7738V8.37078C45.7738 7.75911 45.7625 7.57787 45.7285 7.58165C45.7021 7.58165 45.4491 7.65716 45.1697 7.744Z" fill="#090C21"/>
<path d="M33.7103 9.06925C33.1439 9.19385 32.6455 9.48459 32.2491 9.9188C31.6601 10.5644 31.4373 11.2063 31.4713 12.1654C31.4864 12.5845 31.5053 12.7053 31.6072 12.9998C32.0603 14.3402 33.2648 15.1331 34.6203 14.9783C35.2206 14.9103 35.6435 14.714 36.0437 14.3138L36.2589 14.0948V14.865H37.5049V9.16365H36.2589V9.89992L36.0022 9.65449C35.5529 9.22028 34.9752 9.00884 34.2691 9.01639C34.0879 9.01639 33.8349 9.04282 33.7103 9.06925ZM34.7675 10.2209C35.4774 10.3228 36.0739 10.8778 36.225 11.5839C36.2891 11.8746 36.2476 12.4183 36.1457 12.6864C35.8965 13.3396 35.3188 13.755 34.5976 13.7965C33.5215 13.8645 32.706 13.0942 32.7097 12.0181C32.7135 11.4744 32.8457 11.1157 33.1893 10.7495C33.4989 10.4172 33.9293 10.2246 34.4466 10.1869C34.4768 10.1869 34.624 10.202 34.7675 10.2209Z" fill="#090C21"/>
<path d="M40.1478 9.073C39.6381 9.17872 39.117 9.53742 38.8829 9.93009C38.596 10.4247 38.6073 11.1534 38.9093 11.5839C39.219 12.0219 39.6947 12.2673 40.8085 12.5618C41.3711 12.709 41.7336 12.9771 41.7336 13.2376C41.7336 13.2905 41.6996 13.4038 41.6619 13.4906C41.609 13.6077 41.5486 13.6681 41.4089 13.736C41.2428 13.8153 41.1748 13.8267 40.7708 13.8267C40.3857 13.8267 40.2913 13.8116 40.1402 13.7436C39.925 13.6417 39.6985 13.4227 39.6041 13.2225C39.5663 13.1395 39.5286 13.064 39.521 13.0564C39.5059 13.0375 38.4902 13.619 38.4638 13.6605C38.426 13.7247 38.6564 14.057 38.9169 14.3175C39.3926 14.7895 39.9401 14.9858 40.7708 14.9858C41.3371 14.9858 41.7034 14.9065 42.0847 14.7064C42.3944 14.5441 42.7304 14.208 42.8588 13.9324C42.9532 13.7323 42.9607 13.6756 42.9607 13.2414C42.9607 12.6864 42.9079 12.5354 42.6209 12.2257C42.3037 11.8859 41.9262 11.6934 41.2314 11.5197C40.6613 11.3762 40.2799 11.2176 40.1063 11.0553C39.9741 10.9231 39.959 10.8929 39.959 10.7192C39.959 10.5569 39.9779 10.504 40.076 10.3907C40.4196 10.0018 41.3258 10.0925 41.677 10.5455C41.7449 10.6399 41.8091 10.7343 41.8167 10.7532C41.8318 10.7947 42.8663 10.2322 42.8663 10.1831C42.8663 10.1113 42.5114 9.6809 42.3302 9.53742C42.0696 9.32975 41.6619 9.13719 41.3371 9.06923C41.0087 9.00126 40.4725 9.00126 40.1478 9.073Z" fill="#090C21"/>
<path d="M49.961 9.06932C49.4324 9.17504 48.9529 9.45445 48.5224 9.91509C48.0429 10.4286 47.8164 10.9194 47.7333 11.6444C47.5823 12.9319 48.2317 14.1741 49.3418 14.7292C49.7118 14.9142 50.0554 14.9897 50.55 14.9897C51.2938 14.9897 51.8149 14.7934 52.2793 14.3327L52.5323 14.0797V14.8651H53.7783V9.16371H52.5323V9.93019L52.2793 9.67722C51.9848 9.38271 51.5657 9.15616 51.1541 9.06932C50.8332 9.00136 50.297 9.00136 49.961 9.06932ZM51.2863 10.2851C52.1132 10.5117 52.6456 11.399 52.4983 12.3051C52.4152 12.8413 52.0641 13.3586 51.6299 13.5964C51.2485 13.8041 50.6935 13.8645 50.248 13.7512C49.1794 13.4718 48.6433 12.2296 49.1454 11.1913C49.5306 10.3946 50.3801 10.0321 51.2863 10.2851Z" fill="#090C21"/>
<path d="M57.5162 9.07308C57.082 9.16747 56.6818 9.41289 56.4288 9.74516L56.3458 9.85466V9.1637H55.0998V14.8651H56.3458V13.2113C56.3458 12.1918 56.3609 11.4707 56.3873 11.3385C56.4741 10.859 56.746 10.4852 57.1311 10.304C57.3237 10.2134 57.3916 10.202 57.7617 10.202C58.1392 10.202 58.1959 10.2096 58.3922 10.3077C58.6339 10.4286 58.8113 10.6098 58.9284 10.859C59.0039 11.0251 59.0076 11.1007 59.0265 12.9394L59.0454 14.8462L59.6609 14.8575L60.2725 14.8651V12.9243C60.2725 10.7306 60.265 10.6438 60.0082 10.1227C59.8383 9.77159 59.4985 9.42045 59.1738 9.25431C58.7245 9.02777 58.0599 8.95225 57.5162 9.07308Z" fill="#090C21"/>
<path d="M63.4633 9.06926C62.7383 9.22784 62.1267 9.65827 61.6887 10.3153C61.3375 10.8439 61.1978 11.4102 61.228 12.1427C61.2658 13.0866 61.5981 13.7738 62.3004 14.3742C62.8554 14.8499 63.6332 15.0765 64.3883 14.9821C64.9925 14.9066 65.4191 14.6989 65.8042 14.3024L65.993 14.1099L66.0308 14.8461L66.6462 14.8575L67.2579 14.865V9.16365H66.0119V9.89992L65.7476 9.64694C65.438 9.34866 65.0755 9.15987 64.6451 9.07303C64.2977 9.00129 63.7767 9.00129 63.4633 9.06926ZM64.5205 10.2209C64.9018 10.2775 65.219 10.4399 65.4984 10.7193C65.8609 11.0855 66.0081 11.4555 66.0119 11.9955C66.0157 13.0451 65.2681 13.8078 64.2373 13.8078C63.2065 13.8078 62.4627 13.0451 62.4627 11.9955C62.4665 10.9836 63.1612 10.2586 64.1996 10.1869C64.2298 10.1869 64.377 10.202 64.5205 10.2209Z" fill="#090C21"/>
<path d="M77.8865 13.2604L77.9885 13.5624C78.3056 14.4988 79.023 14.9934 80.0576 14.9897C80.7372 14.9897 81.1412 14.8349 81.5603 14.4271L81.7944 14.193V14.8651H83.0404V9.16369H81.7944V10.8212C81.7944 11.769 81.7793 12.5619 81.7566 12.6789C81.7 12.981 81.515 13.3283 81.3187 13.502C81.0128 13.7701 80.5409 13.8872 80.0953 13.8079C79.6573 13.7286 79.4119 13.5436 79.2307 13.166L79.1325 12.9583L79.1099 9.16369H77.8639L77.8865 13.2604Z" fill="#090C21"/>
<path d="M9.90422 12.4108C6.793 12.592 3.90078 13.1018 1.843 13.8343C1.57115 13.9286 1.27286 14.0457 1.17847 14.0948C0.834876 14.2647 0.578125 14.6687 0.578125 15.0349C0.578125 15.3936 1.03121 16.6245 1.47675 17.4892C3.2438 20.8873 6.44186 23.217 10.2063 23.8475C11.6184 24.0854 13.2986 24.0439 14.7372 23.7305C16.4514 23.3605 18.2373 22.5147 19.6494 21.3933C20.1554 20.9931 21.1673 19.9812 21.5675 19.4752C22.4888 18.3123 23.3685 16.6208 23.6895 15.3936C23.7612 15.1105 23.7688 15.05 23.7272 14.8613C23.6706 14.5932 23.5082 14.3364 23.3081 14.1892C23.0363 13.9928 21.8809 13.6039 20.6651 13.2981C19.0906 12.9054 17.3424 12.6373 15.228 12.4637C14.3822 12.3957 10.8104 12.3579 9.90422 12.4108Z" fill="#090C21"/>
</svg>

<svg xmlns="http://www.w3.org/2000/svg" width="91" height="24" fill="none"><path fill="#090C21" d="M10.83.045C9.307.23 8.02.62 6.694 1.291 3.84 2.745 1.632 5.361.69 8.405c-.143.464-.14.706.012 1.012.173.34.306.423 1.09.713 4.51 1.646 12.351 1.971 18.03.748 1.518-.325 3.081-.812 3.47-1.076.208-.14.378-.408.434-.669.053-.256.02-.434-.204-1.064a12.04 12.04 0 0 0-6.192-6.929C16.232.62 15.171.298 13.888.094c-.635-.098-2.417-.128-3.059-.049M71.524 14.865h1.246v-1.691c0-1.84.015-1.986.216-2.356.124-.23.302-.39.577-.518.185-.087.257-.098.623-.098.378 0 .434.008.63.106.284.14.465.355.56.66.071.227.075.355.075 2.07v1.827h1.246V12.94c0-2.16-.011-2.284-.253-2.794a2.1 2.1 0 0 0-.88-.898c-.641-.314-1.559-.306-2.163.019a2.3 2.3 0 0 0-.412.324l-.219.223V6.898h-1.246zM84.362 14.865h1.246v-.79l.192.205c.386.408.835.623 1.458.698 1.344.163 2.617-.683 3.028-2.016a3.4 3.4 0 0 0 .117-1.321c-.083-.76-.332-1.273-.883-1.82-.291-.287-.404-.374-.703-.521-1.046-.518-2.393-.314-3.058.46l-.151.178v-3.04h-1.246zm3.53-4.599c.646.166 1.17.77 1.265 1.461.132.956-.396 1.79-1.295 2.028-.26.068-.676.068-.951-.004-.82-.215-1.356-1-1.292-1.888.083-1.155 1.133-1.891 2.273-1.597M45.17 7.744c-.28.087-.54.17-.574.181-.06.027-.068.09-.068.635v.604h-1.02v1.208h1.012l.015 1.612c.016 1.53.02 1.627.099 1.862.17.51.441.789.932.951.234.076.34.087.887.087.344 0 .654-.011.691-.027.057-.026.065-.09.065-.577v-.548h-.48c-.393 0-.513-.015-.642-.071-.294-.136-.294-.125-.306-1.805l-.011-1.484.71-.008.71-.011.022-1.19h-1.438v-.792c0-.612-.011-.793-.046-.79-.026 0-.279.076-.558.163M33.71 9.07a2.76 2.76 0 0 0-1.46.849c-.59.645-.813 1.287-.779 2.246.015.42.034.54.136.835.453 1.34 1.658 2.133 3.013 1.978.6-.068 1.024-.264 1.424-.664l.215-.22v.771h1.246V9.164h-1.246V9.9l-.257-.246q-.675-.65-1.733-.638c-.181 0-.434.027-.559.053m1.057 1.15c.71.103 1.307.658 1.458 1.364.064.29.023.834-.08 1.102-.248.654-.826 1.069-1.547 1.11-1.076.069-1.892-.702-1.888-1.778.004-.544.136-.902.48-1.269.309-.332.74-.524 1.257-.562.03 0 .177.015.32.034M40.148 9.073c-.51.106-1.031.464-1.265.857-.287.495-.276 1.223.026 1.654.31.438.786.683 1.9.978.562.147.925.415.925.676a.9.9 0 0 1-.072.253c-.053.117-.113.177-.253.245-.166.08-.234.09-.638.09-.385 0-.48-.014-.63-.082a1.23 1.23 0 0 1-.537-.521 2 2 0 0 0-.083-.167c-.015-.018-1.03.563-1.057.605-.038.064.192.396.453.657.476.472 1.023.668 1.854.668.566 0 .932-.08 1.314-.28.31-.162.645-.498.774-.774.094-.2.102-.256.102-.69 0-.556-.053-.707-.34-1.016-.317-.34-.695-.533-1.39-.706-.57-.144-.951-.302-1.125-.465-.132-.132-.147-.162-.147-.336 0-.162.019-.215.117-.328.344-.39 1.25-.299 1.601.155.068.094.132.188.14.207.015.042 1.05-.52 1.05-.57 0-.072-.356-.502-.537-.646-.26-.207-.668-.4-.993-.468a3.4 3.4 0 0 0-1.19.004M49.961 9.07q-.793.156-1.439.845c-.48.514-.706 1.004-.789 1.73-.15 1.287.499 2.53 1.609 3.084.37.185.713.26 1.208.26.744 0 1.265-.196 1.73-.656l.252-.253v.785h1.246V9.164h-1.246v.766l-.253-.253a2.33 2.33 0 0 0-1.125-.608 3.5 3.5 0 0 0-1.193 0m1.325 1.215c.827.227 1.36 1.114 1.212 2.02-.083.536-.434 1.054-.868 1.291-.382.208-.937.268-1.382.155-1.069-.28-1.605-1.521-1.103-2.56.386-.796 1.235-1.159 2.141-.906M57.516 9.073c-.434.094-.834.34-1.087.672l-.083.11v-.691H55.1v5.701h1.246v-1.654c0-1.02.015-1.74.041-1.873.087-.479.359-.853.744-1.034.193-.09.26-.102.63-.102.378 0 .435.008.631.106q.362.179.536.551c.076.166.08.242.099 2.08l.018 1.907.616.011.611.008v-1.94c0-2.194-.007-2.281-.264-2.802a2.06 2.06 0 0 0-.834-.869c-.45-.226-1.114-.302-1.658-.18M63.463 9.07c-.725.158-1.336.588-1.774 1.245-.352.529-.491 1.095-.461 1.828.038.944.37 1.63 1.072 2.231.555.476 1.333.702 2.088.608.605-.075 1.031-.283 1.416-.68l.189-.192.038.736.615.011.612.008V9.164h-1.246V9.9l-.264-.253a2.16 2.16 0 0 0-1.103-.574 3.4 3.4 0 0 0-1.182-.004m1.057 1.15c.382.057.699.22.978.5.363.365.51.736.514 1.275.004 1.05-.744 1.813-1.775 1.813s-1.774-.763-1.774-1.812c.004-1.012.698-1.737 1.737-1.81.03 0 .177.016.32.035M77.887 13.26l.102.302c.317.937 1.034 1.431 2.069 1.428.68 0 1.083-.155 1.502-.563l.234-.234v.672h1.246V9.164h-1.246v1.657c0 .948-.015 1.74-.037 1.858-.057.302-.242.65-.438.823-.306.268-.778.385-1.224.306-.438-.08-.683-.264-.864-.642l-.099-.208-.022-3.794h-1.246zM9.904 12.41c-3.111.182-6.003.692-8.061 1.424-.272.095-.57.212-.665.26-.343.17-.6.575-.6.94 0 .36.453 1.59.899 2.455a12.03 12.03 0 0 0 8.73 6.358c1.411.238 3.092.197 4.53-.117 1.714-.37 3.5-1.215 4.912-2.337.506-.4 1.518-1.412 1.918-1.918.922-1.163 1.802-2.854 2.122-4.081.072-.284.08-.344.038-.533a1.16 1.16 0 0 0-.419-.672c-.272-.196-1.427-.585-2.643-.89-1.574-.394-3.323-.662-5.437-.835-.846-.068-4.418-.106-5.324-.053"/></svg>
